!!!COM: Palestrina, Giovanni Perluigi da
!!!OPR: Quinti toni
!!!OTL: Agnus II
**kern	**kern	**kern	**kern	**kern	**kern
*Ibass	*Itenor	*Itenor	*Icalto	*Icant	*Icant
!Bassus	!Tenor 2	!Tenor 1	!Altus	!Cantus 2	!Cantus 1
*clefF4	*clefGv2	*clefGv2	*clefG2	*clefG2	*clefG2
*k[b-]	*k[b-]	*k[b-]	*k[b-]	*k[b-]	*k[b-]
*F:ion	*F:ion	*F:ion	*F:ion	*F:ion	*F:ion
*M4/2	*M4/2	*M4/2	*M4/2	*M4/2	*M4/2
=1	=1	=1	=1	=1	=1
0r	0r	0r	1r	0r	1cc
.	.	.	1f	.	2cc
.	.	.	.	.	[2ff
=2	=2	=2	=2	=2	=2
0r	0r	0r	2f	0r	4ff]
.	.	.	.	.	4ee
.	.	.	2.b-	.	4dd
.	.	.	.	.	4cc
.	.	.	.	.	4dd
.	.	.	4a	.	4cc
.	.	.	4g	.	4b-
.	.	.	4f	.	4a
=3	=3	=3	=3	=3	=3
0r	0r	1r	2g	0r	2b-
.	.	.	1f	.	2a
.	.	1c	.	.	[1g
.	.	.	4e	.	.
.	.	.	4d	.	.
=4	=4	=4	=4	=4	=4
0r	0r	2c	2e	1cc	2g]
.	.	2.f	2.a	.	2f
.	.	.	.	2cc	1a
.	.	4e	4g	.	.
.	.	4d	4f	[2ff	.
.	.	4c	4e	.	.
=5	=5	=5	=5	=5	=5
0r	0r	4d	4d	4ff]	2a
.	.	4c	4e	4ee	.
.	.	4B-	1f	4dd	2.b-
.	.	4A	.	4cc	.
.	.	2B-	.	2dd	.
.	.	.	.	.	4a
.	.	2A	2c	[2cc	2f
=6	=6	=6	=6	=6	=6
1r	0r	1G	1d	2cc]	2g
.	.	.	.	2b-	2g
1C	.	2.c	1e	2.cc	2g
.	.	.	.	.	[2cc
.	.	4d	.	8b-	.
.	.	.	.	8a	.
=7	=7	=7	=7	=7	=7
2C	1c	2e	1r	2g	4cc]
.	.	.	.	.	4b-
2.F	.	2f	.	2a	4a
.	.	.	.	.	4g
.	2c	2c	2r	1f	1a
4E	.	.	.	.	.
4D	[2f	2d	2a	.	.
4C	.	.	.	.	.
=8	=8	=8	=8	=8	=8
4D	4f]	2A	2a	1ff	1f
4C	4e	.	.	.	.
4BB-	4d	1f	2.b-	.	.
4AA	4c	.	.	.	.
[1BB-	4d	.	.	1dd	1r
.	4c	.	4a	.	.
.	4B-	2d	4g	.	.
.	4A	.	4f	.	.
=9	=9	=9	=9	=9	=9
1BB-]	2B-	1d	2g	1dd	1r
.	2A	.	1f	.	.
1C	1G	4d	.	1cc	2r
.	.	4c	.	.	.
.	.	4B-	2e	.	2cc
.	.	4A	.	.	.
=10	=10	=10	=10	=10	=10
0F	1F	2.A	1f	2r	1cc
.	.	.	.	2cc	.
.	.	4B-	.	.	.
.	1r	4c	2r	1cc	1a
.	.	4B-	.	.	.
.	.	4A	2f	.	.
.	.	4G	.	.	.
=11	=11	=11	=11	=11	=11
0r	0r	1F	1f	1.a	1cc
.	.	1r	2d	.	1dd
.	.	.	2f	2a	.
=12	=12	=12	=12	=12	=12
0r	0r	0r	2g	2b-	2ee
.	.	.	2a	2cc	2.ff
.	.	.	2.b-	4dd	.
.	.	.	.	4cc	4ee
.	.	.	.	4b-	4dd
.	.	.	4a	4cc	4cc
=13	=13	=13	=13	=13	=13
0r	0r	0r	2g	4dd	4b-
.	.	.	.	4ee	4cc
.	.	.	4f	1ff	1dd
.	.	.	4e	.	.
.	.	.	2d	.	.
.	.	.	2e	2ee	[2cc
=14	=14	=14	=14	=14	=14
0r	1r	0r	2f	1dd	2cc]
.	.	.	2g	.	2b
.	1c	.	2e	[1cc	2cc
.	.	.	[2f	.	2a
=15	=15	=15	=15	=15	=15
1r	1c	2r	2f]	0cc]	2g
.	.	2c	2e	.	2g
1F	1A	1c	[1f	.	[1a
=16	=16	=16	=16	=16	=16
1F	1c	1.A	1f]	0r	1a]
2D	1d	.	1r	.	1f
2F	.	2A	.	.	.
=17	=17	=17	=17	=17	=17
2G	2e	2B-	0r	0r	0r
2A	2.f	2c	.	.	.
2.B-	.	4d	.	.	.
.	4e	4c	.	.	.
.	4d	4B-	.	.	.
4A	4c	4c	.	.	.
=18	=18	=18	=18	=18	=18
2G	4B-	4d	0r	0r	0r
.	4c	4e	.	.	.
4F	1d	1f	.	.	.
4E	.	.	.	.	.
2D	.	.	.	.	.
2E	[2c	2e	.	.	.
=19	=19	=19	=19	=19	=19
2F	2c]	1d	2r	1r	0r
2G	2B	.	2g	.	.
[1C	2.c	1e	1g	2r	.
.	.	.	.	2cc	.
.	4B-	.	.	.	.
=20	=20	=20	=20	=20	=20
1C]	4c	2r	1e	1cc	2r
.	4B-	.	.	.	.
.	4A	1c	.	.	2cc
.	4G	.	.	.	.
1r	1F	.	2f	2a	1cc
.	.	[2f	[2a	2cc	.
=21	=21	=21	=21	=21	=21
0r	0r	2f]	2a]	2dd	2a
.	.	2e	2g	2ee	2cc
.	.	2d	[1a	2ff	2dd
.	.	2c#	.	[2ee	2ee
=22	=22	=22	=22	=22	=22
0r	0r	1d	0a]	4ee]	2.ff
.	.	.	.	4dd	.
.	.	.	.	1dd	.
.	.	.	.	.	8ee
.	.	.	.	.	8dd
.	.	1A	.	.	1ee
.	.	.	.	2cc#	.
=23	=23	=23	=23	=23	=23
2r	0r	2.B-	1f	1dd	1dd
2B-	.	.	.	.	.
.	.	4c	.	.	.
1B-	.	[1d	1f	2r	2r
.	.	.	.	2dd	2b-
=24	=24	=24	=24	=24	=24
0G	2r	1d]	1g	1dd	1b-
.	2B-	.	.	.	.
.	1B-	2r	1d	2b-	2g
.	.	2B-	.	2g	[2b-
=25	=25	=25	=25	=25	=25
1G	2G	1B-	1g	1dd	4b-]
.	.	.	.	.	4cc
.	2B-	.	.	.	2dd
2C	2c	2G	2g	2cc	2ee-
2G	2d	2B-	2g	4b-	[2dd
.	.	.	.	4a	.
=26	=26	=26	=26	=26	=26
1C	1e-	2c	1g	2g	4dd]
.	.	.	.	.	4cc
.	.	2c	.	2.gg	1cc
1G	1d	1d	1g	.	.
.	.	.	.	4ff	.
.	.	.	.	2gg	2b
=27	=27	=27	=27	=27	=27
2C	1c	0e	2r	1ee	1cc
1C	.	.	1g	.	.
.	2r	.	.	1cc	1r
2C	[2c	.	2g	.	.
=28	=28	=28	=28	=28	=28
1F	2c]	0r	2.a	1cc	2r
.	2c	.	.	.	1a
.	.	.	4g	.	.
1D	2.d	.	4f	2.ff	.
.	.	.	4e	.	.
.	.	.	[2f	.	2a
.	4c	.	.	4ee	.
=29	=29	=29	=29	=29	=29
0r	4B-	0r	2f]	4dd	2.ff
.	4A	.	.	4cc	.
.	1B-	.	2d	1dd	.
.	.	.	.	.	4ee
.	.	.	2f	.	4dd
.	.	.	.	.	4cc
.	2G	.	[2g	2b-	[2b-
=30	=30	=30	=30	=30	=30
0r	1B-	1r	4g]	1dd	2b-]
.	.	.	4f	.	.
.	.	.	1f	.	2a
.	[1c	2r	.	1cc	1g
.	.	[2g	4e	.	.
.	.	.	4d	.	.
=31	=31	=31	=31	=31	=31
2r	1c]	2g]	1e	1r	0cc
1c	.	2g	.	.	.
.	1F	2.a	2f	2r	.
2c	.	.	[2a	2cc	.
.	.	4g	.	.	.
=32	=32	=32	=32	=32	=32
2.d	0r	4f	2a]	2a	0r
.	.	4e	.	.	.
.	.	1f	2a	4ff	.
4c	.	.	.	4ee	.
4B-	.	.	2b-	4dd	.
4A	.	.	.	4cc	.
[2B-	.	2d	2f	[2dd	.
=33	=33	=33	=33	=33	=33
2B-]	0r	2f	1.b-	2dd]	0r
2G	.	2.g	.	2b-	.
1B-	.	.	.	1dd	.
.	.	4f	.	.	.
.	.	[2f	2a	.	.
=34	=34	=34	=34	=34	=34
1c	1r	2f]	2.g	1cc	2r
.	.	4e	.	.	1cc
.	.	4d	4f	.	.
1r	2r	2e	2g	1r	.
.	[2f	4f	[2a	.	2cc
.	.	4e	.	.	.
=35	=35	=35	=35	=35	=35
0r	2f]	4d	2a]	2r	2.dd
.	.	4c	.	.	.
.	2f	4B-	2d	1dd	.
.	.	4A	.	.	4cc
.	2.g	1G	1r	.	4b-
.	.	.	.	.	4a
.	.	.	.	2g	[2b-
.	4f	.	.	.	.
=36	=36	=36	=36	=36	=36
0r	4e-	0r	1g	2.b-	2b-]
.	4d	.	.	.	.
.	1e-	.	.	.	2g
.	.	.	.	4a	.
.	.	.	2g	2g	1b-
.	2d	.	[2b-	2f	.
=37	=37	=37	=37	=37	=37
0r	1c	0r	2b-]	2g	2.cc
.	.	.	2a	2a	.
.	.	.	.	.	8b-
.	.	.	.	.	8cc
.	1B-	.	2g	1b-	1dd
.	.	.	[2f	.	.
=38	=38	=38	=38	=38	=38
1C	0c	2r	2f]	1g	0cc
.	.	1g	4e	.	.
.	.	.	4d	.	.
1C	.	.	1e	2r	.
.	.	2g	.	[2cc	.
=39	=39	=39	=39	=39	=39
1F	1A	2.a	1f	2cc]	2r
.	.	.	.	2cc	1ff
.	.	4g	.	.	.
1BB-	1B-	4f	1r	2.dd	.
.	.	4e	.	.	.
.	.	[2f	.	.	2ff
.	.	.	.	4cc	.
=40	=40	=40	=40	=40	=40
2.BB-	2.d	2f]	0r	4b-	1ff
.	.	.	.	4a	.
.	.	2d	.	1b-	.
4C	4c	.	.	.	.
2D	[1B-	2f	.	.	2dd
[2E-	.	[2g	.	2g	[2b-
=41	=41	=41	=41	=41	=41
2E-]	2B-]	2g]	1r	1b-	4b-]
.	.	.	.	.	4cc
2D	2F	1f	.	.	2dd
[1C	1G	.	2r	[1cc	1g
.	.	4e	[2g	.	.
.	.	4d	.	.	.
=42	=42	=42	=42	=42	=42
1C]	2G	1e	2g]	1cc]	2r
.	1c	.	2g	.	1cc
1F	.	2.f	2.a	2r	.
.	2c	.	.	[2ff	2cc
.	.	4e	4g	.	.
=43	=43	=43	=43	=43	=43
1BB-	2.d	4d	4f	2ff]	[0b-
.	.	4c	4e	.	.
.	.	4B-	1f	2ff	.
.	4c	4c	.	.	.
2.BB-	4B-	1d	.	1ff	.
.	4A	.	.	.	.
.	[2B-	.	2d	.	.
4C	.	.	.	.	.
=44	=44	=44	=44	=44	=44
2D	2B-]	1r	2f	2ff	1b-]
2E	2G	.	1g	4ee	.
.	.	.	.	4dd	.
1F	2A	2.c	.	1cc	1a
.	2F	.	[2f	.	.
.	.	4c	.	.	.
=45	=45	=45	=45	=45	=45
0C	0G	2c	2f]	0cc	0g
.	.	2c	4e	.	.
.	.	.	4d	.	.
.	.	1c	1e	.	.
=46	=46	=46	=46	=46	=46
0F	0F	0A	0f	0cc	0a
==	==	==	==	==	==
*-	*-	*-	*-	*-	*-
!!!CDT: 1525/^1526/-1594/2/2
!!!OCY: Italia
!!!AGN: Mass (Free)
!!!AST: renaissance, vocal
!!!ASW: Motet 1532 (Penet)
!!!PWK: Masses, Book 10
!!!RNB: Cadence finals: C
!!!YOR: Le Opere Complete, v. 27, p. 120
!!!YOO: Rome, Italy: Fratelli Scalera
!!!END: 1992//
!!!EED: John Miller
!!!YEC: Copyright 2000, John Miller
!!!YEN: United States of America
!!!YEM: Rights to all derivative electronic formats reserved.
!!!YEM: Refer to licensing agreement for further details.
!!!YEM: This file must be accompanied by the licensing agreement.
!!!YEM: A copy of the licensing agreement may be found at http://www.music-cog.ohio-state.edu/HumdrumDatabases/Palestrina/license.txt
!!!EMD: converted to Humdrum by Bret Aarden
